**harm	**harte	**timestamp	**phrase	**leadinstrument	**kern
*M4/4	*M4/4	*	*	*	*
*F:	*F:	*	*	*	*F:
1r;	N	0	.	r	1r;
=1	=1	=1	=1	=1	=1
*>A_intro	*>A_intro	*>A_intro	*>A_intro	*>A_intro	*>A_intro
1I	F:maj	0.752	newline	guitar	1F 1a 1cc
=2	=2	=2	=2	=2	=2
1I	F:maj	2.87	.	guitar	1F 1a 1cc
=3	=3	=3	=3	=3	=3
1I	F:maj	4.988	.	guitar	1F 1a 1cc
=4	=4	=4	=4	=4	=4
1I	F:maj	7.105	.	guitar	1F 1a 1cc
=5	=5	=5	=5	=5	=5
*>B_verse	*>B_verse	*>B_verse	*>B_verse	*>B_verse	*>B_verse
1I	F:maj	9.223	newline	voice	1F 1a 1cc
=6	=6	=6	=6	=6	=6
1I	F:maj	11.374	.	voice	1F 1a 1cc
=7	=7	=7	=7	=7	=7
1IV	B-:maj	13.526	.	voice	1B- 1dd 1ff
=8	=8	=8	=8	=8	=8
1IV	B-:maj	15.678	.	voice	1B- 1dd 1ff
=9	=9	=9	=9	=9	=9
1I	F:maj	17.829	newline	voice	1F 1a 1cc
=10	=10	=10	=10	=10	=10
1I	F:maj	19.993	.	voice	1F 1a 1cc
=11	=11	=11	=11	=11	=11
1IV	B-:maj	22.158	.	voice	1B- 1dd 1ff
=12	=12	=12	=12	=12	=12
1IV	B-:maj	24.322	.	voice	1B- 1dd 1ff
=13	=13	=13	=13	=13	=13
1IV	B-:maj	26.486	newline	voice	1B- 1dd 1ff
=14	=14	=14	=14	=14	=14
1IV	B-:maj	28.626	.	voice	1B- 1dd 1ff
=15	=15	=15	=15	=15	=15
1vi7	D:min7	30.766	.	voice	1D 1f 1a 1cc
=16	=16	=16	=16	=16	=16
1vi7	D:min7	32.906	.	voice	1D 1f 1a 1cc
=17	=17	=17	=17	=17	=17
1IV	B-:maj	35.046	newline	voice	1B- 1dd 1ff
=18	=18	=18	=18	=18	=18
1IV	B-:maj	37.153	.	voice	1B- 1dd 1ff
=19	=19	=19	=19	=19	=19
1V	C:maj	39.261	.	voice	1C 1e 1g
=20	=20	=20	=20	=20	=20
1V	C:maj	41.368	.	voice	1C 1e 1g
=21	=21	=21	=21	=21	=21
*>C_chorus	*>C_chorus	*>C_chorus	*>C_chorus	*>C_chorus	*>C_chorus
2vi7	D:min7	43.476	newline	voice	2D 2f 2a 2cc
2V	C:maj	44.491	.	voice	2C 2e 2g
=22	=22	=22	=22	=22	=22
1IV	B-:maj	45.506	.	voice	1B- 1dd 1ff
=23	=23	=23	=23	=23	=23
1IV	B-:maj	47.536	.	voice	1B- 1dd 1ff
=24	=24	=24	=24	=24	=24
1IV	B-:maj	49.566	.	voice	1B- 1dd 1ff
=25	=25	=25	=25	=25	=25
1I	F:maj	51.596	newline	voice	1F 1a 1cc
=26	=26	=26	=26	=26	=26
1I	F:maj	53.568	.	voice	1F 1a 1cc
=27	=27	=27	=27	=27	=27
1IV	B-:maj	55.54	.	voice	1B- 1dd 1ff
=28	=28	=28	=28	=28	=28
1IV	B-:maj	57.512	.	voice	1B- 1dd 1ff
=29	=29	=29	=29	=29	=29
1ii	G:min	59.484	newline	voice	1G 1b- 1dd
=30	=30	=30	=30	=30	=30
1ii	G:min	61.348	.	voice	1G 1b- 1dd
=31	=31	=31	=31	=31	=31
1iii7	A:min7	63.213	.	voice	1A 1cc 1ee 1gg
=32	=32	=32	=32	=32	=32
1iii7	A:min7	65.078	.	voice	1A 1cc 1ee 1gg
=33	=33	=33	=33	=33	=33
*>D_trans	*>D_trans	*>D_trans	*>D_trans	*>D_trans	*>D_trans
1vi	D:min	66.943	newline	guitar	1D 1f 1a
=34	=34	=34	=34	=34	=34
2iii7	A:min7	68.478	.	guitar	2A 2cc 2ee 2gg
2IV	B-:maj	69.245	.	guitar	2B- 2dd 2ff
=35	=35	=35	=35	=35	=35
1vi	D:min	70.012	.	guitar	1D 1f 1a
=36	=36	=36	=36	=36	=36
2iii7	A:min7	71.547	.	guitar	2A 2cc 2ee 2gg
2IV	B-:maj	72.314	.	guitar	2B- 2dd 2ff
=37	=37	=37	=37	=37	=37
1vi	D:min	73.081	newline	guitar	1D 1f 1a
=38	=38	=38	=38	=38	=38
2iii7	A:min7	74.614	.	guitar	2A 2cc 2ee 2gg
2IV	B-:maj	75.38	.	guitar	2B- 2dd 2ff
=39	=39	=39	=39	=39	=39
1IV	B-:maj	76.147	.	guitar	1B- 1dd 1ff
=40	=40	=40	=40	=40	=40
1IV	B-:maj	77.679	.	guitar	1B- 1dd 1ff
=41	=41	=41	=41	=41	=41
*>B_verse	*>B_verse	*>B_verse	*>B_verse	*>B_verse	*>B_verse
1I	F:maj	79.212	newline	voice	1F 1a 1cc
=42	=42	=42	=42	=42	=42
1I	F:maj	80.727	.	voice	1F 1a 1cc
=43	=43	=43	=43	=43	=43
1IV	B-:maj	82.241	.	voice	1B- 1dd 1ff
=44	=44	=44	=44	=44	=44
1IV	B-:maj	83.756	.	voice	1B- 1dd 1ff
=45	=45	=45	=45	=45	=45
1I	F:maj	85.271	newline	voice	1F 1a 1cc
=46	=46	=46	=46	=46	=46
1I	F:maj	86.785	.	voice	1F 1a 1cc
=47	=47	=47	=47	=47	=47
1IV	B-:maj	88.299	.	voice	1B- 1dd 1ff
=48	=48	=48	=48	=48	=48
1IV	B-:maj	89.813	.	voice	1B- 1dd 1ff
=49	=49	=49	=49	=49	=49
1IV	B-:maj	91.327	newline	voice	1B- 1dd 1ff
=50	=50	=50	=50	=50	=50
1IV	B-:maj	92.859	.	voice	1B- 1dd 1ff
=51	=51	=51	=51	=51	=51
1vi7	D:min7	94.391	.	voice	1D 1f 1a 1cc
=52	=52	=52	=52	=52	=52
1vi7	D:min7	95.923	.	voice	1D 1f 1a 1cc
=53	=53	=53	=53	=53	=53
1IV	B-:maj	97.456	newline	voice	1B- 1dd 1ff
=54	=54	=54	=54	=54	=54
1IV	B-:maj	98.982	.	voice	1B- 1dd 1ff
=55	=55	=55	=55	=55	=55
1V	C:maj	100.509	.	voice	1C 1e 1g
=56	=56	=56	=56	=56	=56
1V	C:maj	102.036	.	voice	1C 1e 1g
=57	=57	=57	=57	=57	=57
*>C_chorus	*>C_chorus	*>C_chorus	*>C_chorus	*>C_chorus	*>C_chorus
2vi7	D:min7	103.562	newline	voice	2D 2f 2a 2cc
2V	C:maj	104.327	.	voice	2C 2e 2g
=58	=58	=58	=58	=58	=58
1IV	B-:maj	105.092	.	voice	1B- 1dd 1ff
=59	=59	=59	=59	=59	=59
1IV	B-:maj	106.622	.	voice	1B- 1dd 1ff
=60	=60	=60	=60	=60	=60
1IV	B-:maj	108.152	.	voice	1B- 1dd 1ff
=61	=61	=61	=61	=61	=61
1I	F:maj	109.682	newline	voice	1F 1a 1cc
=62	=62	=62	=62	=62	=62
1I	F:maj	111.202	.	voice	1F 1a 1cc
=63	=63	=63	=63	=63	=63
1IV	B-:maj	112.721	.	voice	1B- 1dd 1ff
=64	=64	=64	=64	=64	=64
1IV	B-:maj	114.24	.	voice	1B- 1dd 1ff
=65	=65	=65	=65	=65	=65
1ii	G:min	115.759	newline	voice	1G 1b- 1dd
=66	=66	=66	=66	=66	=66
1ii	G:min	117.257	.	voice	1G 1b- 1dd
=67	=67	=67	=67	=67	=67
1iii7	A:min7	118.755	.	voice	1A 1cc 1ee 1gg
=68	=68	=68	=68	=68	=68
1iii7	A:min7	120.253	.	voice	1A 1cc 1ee 1gg
=69	=69	=69	=69	=69	=69
*>D_trans	*>D_trans	*>D_trans	*>D_trans	*>D_trans	*>D_trans
1vi	D:min	121.751	newline	guitar	1D 1f 1a
=70	=70	=70	=70	=70	=70
2iii7	A:min7	123.273	.	guitar	2A 2cc 2ee 2gg
2IV	B-:maj	124.034	.	guitar	2B- 2dd 2ff
=71	=71	=71	=71	=71	=71
1vi	D:min	124.794	.	guitar	1D 1f 1a
=72	=72	=72	=72	=72	=72
2iii7	A:min7	126.316	.	guitar	2A 2cc 2ee 2gg
2IV	B-:maj	127.077	.	guitar	2B- 2dd 2ff
=73	=73	=73	=73	=73	=73
1vi	D:min	127.838	newline	guitar	1D 1f 1a
=74	=74	=74	=74	=74	=74
2iii7	A:min7	129.356	.	guitar	2A 2cc 2ee 2gg
2IV	B-:maj	130.115	.	guitar	2B- 2dd 2ff
=75	=75	=75	=75	=75	=75
1vi	D:min	130.874	.	guitar	1D 1f 1a
=76	=76	=76	=76	=76	=76
2iii7	A:min7	132.391	.	guitar	2A 2cc 2ee 2gg
2IV	B-:maj	133.15	.	guitar	2B- 2dd 2ff
=77	=77	=77	=77	=77	=77
*>E_bridge	*>E_bridge	*>E_bridge	*>E_bridge	*>E_bridge	*>E_bridge
1IV7	B-:maj7	133.909	newline	voice	1B- 1dd 1ff 1aa
=78	=78	=78	=78	=78	=78
1V	C:maj	135.487	.	voice	1C 1e 1g
=79	=79	=79	=79	=79	=79
1II	G:maj	137.064	.	voice	1G 1b 1dd
=80	=80	=80	=80	=80	=80
1II	G:maj	138.641	.	voice	1G 1b 1dd
=81	=81	=81	=81	=81	=81
1IV	B-:maj	140.219	newline	voice	1B- 1dd 1ff
=82	=82	=82	=82	=82	=82
1IV	B-:maj	141.786	.	voice	1B- 1dd 1ff
=83	=83	=83	=83	=83	=83
1V	C:maj	143.353	.	voice	1C 1e 1g
=84	=84	=84	=84	=84	=84
1V	C:maj	144.921	.	voice	1C 1e 1g
=85	=85	=85	=85	=85	=85
1IV7	B-:maj7	146.488	newline	voice	1B- 1dd 1ff 1aa
=86	=86	=86	=86	=86	=86
1V	C:maj	148.034	.	voice	1C 1e 1g
=87	=87	=87	=87	=87	=87
1vi	D:min	149.581	.	voice	1D 1f 1a
=88	=88	=88	=88	=88	=88
1vi	D:min	151.127	.	voice	1D 1f 1a
=89	=89	=89	=89	=89	=89
1vi	D:min	152.673	newline	voice	1D 1f 1a
=90	=90	=90	=90	=90	=90
1vi	D:min	154.198	.	voice	1D 1f 1a
=91	=91	=91	=91	=91	=91
1V	C:maj	155.723	.	voice	1C 1e 1g
=92	=92	=92	=92	=92	=92
1IV	B-:maj	157.247	.	voice	1B- 1dd 1ff
=93	=93	=93	=93	=93	=93
1V	C:maj	158.772	.	voice	1C 1e 1g
=94	=94	=94	=94	=94	=94
*>D2_solo	*>D2_solo	*>D2_solo	*>D2_solo	*>D2_solo	*>D2_solo
1vi	D:min	160.297	newline	guitar	1D 1f 1a
=95	=95	=95	=95	=95	=95
2iii7	A:min7	161.829	.	guitar	2A 2cc 2ee 2gg
2IV	B-:maj	162.595	.	guitar	2B- 2dd 2ff
=96	=96	=96	=96	=96	=96
1vi	D:min	163.361	.	guitar	1D 1f 1a
=97	=97	=97	=97	=97	=97
2iii7	A:min7	164.893	.	guitar	2A 2cc 2ee 2gg
2IV	B-:maj	165.659	.	guitar	2B- 2dd 2ff
=98	=98	=98	=98	=98	=98
1vi	D:min	166.425	newline	guitar	1D 1f 1a
=99	=99	=99	=99	=99	=99
2iii7	A:min7	167.935	.	guitar	2A 2cc 2ee 2gg
2IV	B-:maj	168.691	.	guitar	2B- 2dd 2ff
=100	=100	=100	=100	=100	=100
1vi	D:min	169.446	.	guitar	1D 1f 1a
=101	=101	=101	=101	=101	=101
2iii7	A:min7	170.956	.	guitar	2A 2cc 2ee 2gg
2IV	B-:maj	171.711	.	guitar	2B- 2dd 2ff
=102	=102	=102	=102	=102	=102
1vi	D:min	172.466	newline	guitar	1D 1f 1a
=103	=103	=103	=103	=103	=103
2iii7	A:min7	173.978	.	guitar	2A 2cc 2ee 2gg
2IV	B-:maj	174.734	.	guitar	2B- 2dd 2ff
=104	=104	=104	=104	=104	=104
1vi	D:min	175.49	.	guitar	1D 1f 1a
=105	=105	=105	=105	=105	=105
2iii7	A:min7	177.002	.	guitar	2A 2cc 2ee 2gg
2IV	B-:maj	177.758	.	guitar	2B- 2dd 2ff
=106	=106	=106	=106	=106	=106
1vi	D:min	178.514	newline	guitar	1D 1f 1a
=107	=107	=107	=107	=107	=107
2iii7	A:min7	180.032	.	guitar	2A 2cc 2ee 2gg
2IV	B-:maj	180.791	.	guitar	2B- 2dd 2ff
=108	=108	=108	=108	=108	=108
1vi	D:min	181.55	.	guitar	1D 1f 1a
=109	=109	=109	=109	=109	=109
2iii7	A:min7	183.067	.	guitar	2A 2cc 2ee 2gg
2IV	B-:maj	183.826	.	guitar	2B- 2dd 2ff
=110	=110	=110	=110	=110	=110
*>E_solo	*>E_solo	*>E_solo	*>E_solo	*>E_solo	*>E_solo
1IV7	B-:maj7	184.585	newline	guitar	1B- 1dd 1ff 1aa
=111	=111	=111	=111	=111	=111
1V	C:maj	186.094	.	guitar	1C 1e 1g
=112	=112	=112	=112	=112	=112
1vi	D:min	187.602	.	guitar	1D 1f 1a
=113	=113	=113	=113	=113	=113
1vi	D:min	189.111	.	guitar	1D 1f 1a
=114	=114	=114	=114	=114	=114
1vi	D:min	190.619	newline	guitar	1D 1f 1a
=115	=115	=115	=115	=115	=115
1vi	D:min	192.133	.	guitar	1D 1f 1a
=116	=116	=116	=116	=116	=116
1V	C:maj	193.646	.	guitar	1C 1e 1g
=117	=117	=117	=117	=117	=117
1IV	B-:maj	195.16	.	guitar	1B- 1dd 1ff
=118	=118	=118	=118	=118	=118
1V	C:maj	196.673	.	guitar	1C 1e 1g
=119	=119	=119	=119	=119	=119
*>D_trans	*>D_trans	*>D_trans	*>D_trans	*>D_trans	*>D_trans
1vi	D:min	198.187	newline	guitar	1D 1f 1a
=120	=120	=120	=120	=120	=120
2iii7	A:min7	199.693	.	guitar	2A 2cc 2ee 2gg
2IV	B-:maj	200.446	.	guitar	2B- 2dd 2ff
=121	=121	=121	=121	=121	=121
1vi	D:min	201.199	.	guitar	1D 1f 1a
=122	=122	=122	=122	=122	=122
2iii7	A:min7	202.705	.	guitar	2A 2cc 2ee 2gg
2IV	B-:maj	203.458	.	guitar	2B- 2dd 2ff
=123	=123	=123	=123	=123	=123
1vi	D:min	204.211	newline	guitar	1D 1f 1a
=124	=124	=124	=124	=124	=124
2iii7	A:min7	205.714	.	guitar	2A 2cc 2ee 2gg
2IV	B-:maj	206.465	.	guitar	2B- 2dd 2ff
=125	=125	=125	=125	=125	=125
1IV	B-:maj	207.217	.	guitar	1B- 1dd 1ff
=126	=126	=126	=126	=126	=126
1IV	B-:maj	208.719	.	guitar	1B- 1dd 1ff
=127	=127	=127	=127	=127	=127
*>B_verse	*>B_verse	*>B_verse	*>B_verse	*>B_verse	*>B_verse
1I	F:maj	210.222	newline	voice	1F 1a 1cc
=128	=128	=128	=128	=128	=128
1I	F:maj	211.727	.	voice	1F 1a 1cc
=129	=129	=129	=129	=129	=129
1IV	B-:maj	213.232	.	voice	1B- 1dd 1ff
=130	=130	=130	=130	=130	=130
1IV	B-:maj	214.737	.	voice	1B- 1dd 1ff
=131	=131	=131	=131	=131	=131
1I	F:maj	216.242	newline	voice	1F 1a 1cc
=132	=132	=132	=132	=132	=132
1I	F:maj	217.743	.	voice	1F 1a 1cc
=133	=133	=133	=133	=133	=133
1IV	B-:maj	219.244	.	voice	1B- 1dd 1ff
=134	=134	=134	=134	=134	=134
1IV	B-:maj	220.744	.	voice	1B- 1dd 1ff
=135	=135	=135	=135	=135	=135
1IV	B-:maj	222.245	newline	voice	1B- 1dd 1ff
=136	=136	=136	=136	=136	=136
1IV	B-:maj	223.752	.	voice	1B- 1dd 1ff
=137	=137	=137	=137	=137	=137
1vi7	D:min7	225.258	.	voice	1D 1f 1a 1cc
=138	=138	=138	=138	=138	=138
1vi7	D:min7	226.765	.	voice	1D 1f 1a 1cc
=139	=139	=139	=139	=139	=139
1IV	B-:maj	228.271	newline	voice	1B- 1dd 1ff
=140	=140	=140	=140	=140	=140
1IV	B-:maj	229.752	.	voice	1B- 1dd 1ff
=141	=141	=141	=141	=141	=141
1V	C:maj	231.232	.	voice	1C 1e 1g
=142	=142	=142	=142	=142	=142
1V	C:maj	232.713	.	voice	1C 1e 1g
=143	=143	=143	=143	=143	=143
*>C_chorus	*>C_chorus	*>C_chorus	*>C_chorus	*>C_chorus	*>C_chorus
2vi7	D:min7	234.194	newline	voice	2D 2f 2a 2cc
2V	C:maj	234.946	.	voice	2C 2e 2g
=144	=144	=144	=144	=144	=144
1IV	B-:maj	235.699	.	voice	1B- 1dd 1ff
=145	=145	=145	=145	=145	=145
1IV	B-:maj	237.204	.	voice	1B- 1dd 1ff
=146	=146	=146	=146	=146	=146
1IV	B-:maj	238.709	.	voice	1B- 1dd 1ff
=147	=147	=147	=147	=147	=147
1I	F:maj	240.214	newline	voice	1F 1a 1cc
=148	=148	=148	=148	=148	=148
1I	F:maj	241.718	.	voice	1F 1a 1cc
=149	=149	=149	=149	=149	=149
1IV	B-:maj	243.221	.	voice	1B- 1dd 1ff
=150	=150	=150	=150	=150	=150
1IV	B-:maj	244.725	.	voice	1B- 1dd 1ff
=151	=151	=151	=151	=151	=151
1ii	G:min	246.228	newline	voice	1G 1b- 1dd
=152	=152	=152	=152	=152	=152
1ii	G:min	247.833	.	voice	1G 1b- 1dd
=153	=153	=153	=153	=153	=153
1iii7	A:min7	249.438	.	voice	1A 1cc 1ee 1gg
=154	=154	=154	=154	=154	=154
1iii7	A:min7	251.043	.	voice	1A 1cc 1ee 1gg
=155	=155	=155	=155	=155	=155
1iii7	A:min7	252.648	.	voice	1A 1cc 1ee 1gg
=156	=156	=156	=156	=156	=156
*M2/4	*M2/4	*M2/4	*M2/4	*M2/4	*M2/4
2iii7	A:min7	254.253	.	voice	2A 2cc 2ee 2gg
=157	=157	=157	=157	=157	=157
*M4/4	*M4/4	*M4/4	*M4/4	*M4/4	*M4/4
1iii7	A:min7	255.056	.	voice	1A 1cc 1ee 1gg
=158	=158	=158	=158	=158	=158
*>D_coda	*>D_coda	*>D_coda	*>D_coda	*>D_coda	*>D_coda
1vi	D:min	256.661	newline	guitar	1D 1f 1a
=159	=159	=159	=159	=159	=159
2iii7	A:min7	258.163	.	guitar	2A 2cc 2ee 2gg
2IV	B-:maj	258.914	.	guitar	2B- 2dd 2ff
=160	=160	=160	=160	=160	=160
1vi	D:min	259.665	.	guitar	1D 1f 1a
=161	=161	=161	=161	=161	=161
2iii7	A:min7	261.168	.	guitar	2A 2cc 2ee 2gg
2IV	B-:maj	261.919	.	guitar	2B- 2dd 2ff
=162	=162	=162	=162	=162	=162
1vi	D:min	262.67	newline	guitar	1D 1f 1a
=163	=163	=163	=163	=163	=163
2iii7	A:min7	264.158	.	guitar	2A 2cc 2ee 2gg
2IV	B-:maj	264.902	.	guitar	2B- 2dd 2ff
=164	=164	=164	=164	=164	=164
1vi	D:min	265.647	.	guitar	1D 1f 1a
=165	=165	=165	=165	=165	=165
2iii7	A:min7	267.135	.	guitar	2A 2cc 2ee 2gg
2IV	B-:maj	267.879	.	guitar	2B- 2dd 2ff
=166	=166	=166	=166	=166	=166
1vi	D:min	268.623	newline	guitar	1D 1f 1a
=167	=167	=167	=167	=167	=167
2iii7	A:min7	270.109	.	guitar	2A 2cc 2ee 2gg
2IV	B-:maj	270.852	.	guitar	2B- 2dd 2ff
=168	=168	=168	=168	=168	=168
1vi	D:min	271.595	.	guitar	1D 1f 1a
=169	=169	=169	=169	=169	=169
2iii7	A:min7	273.081	.	guitar	2A 2cc 2ee 2gg
2IV	B-:maj	273.824	.	guitar	2B- 2dd 2ff
=170	=170	=170	=170	=170	=170
1vi	D:min	274.566	newline	guitar	1D 1f 1a
=171	=171	=171	=171	=171	=171
2iii7	A:min7	276.074	.	guitar	2A 2cc 2ee 2gg
2IV	B-:maj	276.828	.	guitar	2B- 2dd 2ff
=172	=172	=172	=172	=172	=172
1vi	D:min	277.582	.	guitar	1D 1f 1a
=173	=173	=173	=173	=173	=173
2iii7	A:min7	279.09	.	guitar	2A 2cc 2ee 2gg
2IV	B-:maj	279.844	.	guitar	2B- 2dd 2ff
=174	=174	=174	=174	=174	=174
1vi	D:min	280.598	newline	guitar	1D 1f 1a
=175	=175	=175	=175	=175	=175
1vi	D:min	282.101	.	guitar	1D 1f 1a
1r;	N	286.047	.	r	1r;
1r;	N	288.104	.	r	1r;
*-	*-	*-	*-	*-	*-
!!!OTL: Promises In The Dark
!!!COC: Pat Benatar
!!!BillboardChartDate: 1981/11/21, 1981/11/21
!!!BillboardPeak: 38, 38
!!!BillboardWeeksOnChart: 11, 11
!!!SampleTargetRank: 57, 55
!!!SampleActualRank: 55, 55
!!!SampleID#: 227, 275
!!!RDF**harmony: **recip + pitch class of root + harmonic quality
!!!RDF**harte: Chris Harte's syntax, used by MIREX
!!!RDF**phrase: newline = linebreak in original McGill transcription
!!!RDF**timestamp: McGill audio timestamp in seconds
!!!RDF**leadinstrument: original McGill primary instrumentation annotation
!!!RDT: 2017/01/12/
!!!ENC: Nathaniel Condit-Schultz
!!!EST: Awating manual error checking and editing.
